icons/midna/devices/64/media-optical-audio.svg

<?xml version="1.0" encoding="UTF-8" standalone="no"?>
<!-- Created with Inkscape (http://www.inkscape.org/) -->

<svg
   xmlns:dc="http://purl.org/dc/elements/1.1/"
   xmlns:cc="http://creativecommons.org/ns#"
   xmlns:rdf="http://www.w3.org/1999/02/22-rdf-syntax-ns#"
   xmlns:svg="http://www.w3.org/2000/svg"
   xmlns="http://www.w3.org/2000/svg"
   xmlns:xlink="http://www.w3.org/1999/xlink"
   xmlns:sodipodi="http://sodipodi.sourceforge.net/DTD/sodipodi-0.dtd"
   xmlns:inkscape="http://www.inkscape.org/namespaces/inkscape"
   width="64"
   height="64"
   id="svg5453"
   version="1.1"
   inkscape:version="0.91 r13725"
   sodipodi:docname="media-optical-audio.svg">
  <defs
     id="defs5455">
    <linearGradient
       gradientTransform="matrix(1.2998888,0,0,1.3,-499.09733,-648.93736)"
       gradientUnits="userSpaceOnUse"
       y2="537.79797"
       x2="422.57147"
       y1="523.79797"
       x1="408.5715"
       id="linearGradient4372"
       xlink:href="#linearGradient4227"
       inkscape:collect="always" />
    <linearGradient
       inkscape:collect="always"
       id="linearGradient4227">
      <stop
         style="stop-color:#292c2f;stop-opacity:1"
         offset="0"
         id="stop4229" />
      <stop
         style="stop-color:#000000;stop-opacity:0;"
         offset="1"
         id="stop4231" />
    </linearGradient>
    <linearGradient
       y2="506.798"
       x2="409.57144"
       y1="540.79797"
       x1="409.57144"
       gradientTransform="matrix(1.5292812,0,0,1.529412,-592.82053,-769.10295)"
       gradientUnits="userSpaceOnUse"
       id="linearGradient3834"
       xlink:href="#linearGradient4300"
       inkscape:collect="always" />
    <linearGradient
       y2="506.798"
       x2="409.57144"
       y1="540.79797"
       x1="409.57144"
       gradientTransform="matrix(0.52941243,0,0,0.52941244,-184.30279,-245.30519)"
       gradientUnits="userSpaceOnUse"
       id="linearGradient3862"
       xlink:href="#linearGradient4351"
       inkscape:collect="always" />
    <linearGradient
       gradientTransform="matrix(1.2998888,0,0,1.3,-112.20755,-177.99286)"
       gradientUnits="userSpaceOnUse"
       y2="533.68524"
       x2="418.3273"
       y1="522.91602"
       x1="407.55716"
       id="linearGradient4372-2-0"
       xlink:href="#linearGradient4227"
       inkscape:collect="always" />
    <linearGradient
       gradientTransform="matrix(1.1111111,0,0,1.1111111,381.53272,-618.94573)"
       inkscape:collect="always"
       xlink:href="#linearGradient4351"
       id="linearGradient4215-6"
       x1="38.734837"
       y1="1023.0693"
       x2="38.734837"
       y2="1005.0693"
       gradientUnits="userSpaceOnUse" />
    <linearGradient
       inkscape:collect="always"
       xlink:href="#linearGradient4300"
       id="linearGradient4222"
       x1="8.9999866"
       y1="1050.3622"
       x2="8.9999866"
       y2="1038.3622"
       gradientUnits="userSpaceOnUse" />
    <linearGradient
       inkscape:collect="always"
       id="linearGradient4300">
      <stop
         style="stop-color:#26c281;stop-opacity:1"
         offset="0"
         id="stop4302" />
      <stop
         style="stop-color:#3fc380;stop-opacity:1"
         offset="1"
         id="stop4304" />
    </linearGradient>
    <linearGradient
       inkscape:collect="always"
       id="linearGradient4351">
      <stop
         style="stop-color:#036b53;stop-opacity:1"
         offset="0"
         id="stop4353" />
      <stop
         style="stop-color:#036b53;stop-opacity:1"
         offset="1"
         id="stop4355" />
    </linearGradient>
  </defs>
  <sodipodi:namedview
     id="base"
     pagecolor="#ffffff"
     bordercolor="#666666"
     borderopacity="1.0"
     inkscape:pageopacity="0"
     inkscape:pageshadow="2"
     inkscape:zoom="5.6568545"
     inkscape:cx="27.455296"
     inkscape:cy="40.030353"
     inkscape:document-units="px"
     inkscape:current-layer="layer1"
     showgrid="true"
     fit-margin-top="0"
     fit-margin-left="0"
     fit-margin-right="0"
     fit-margin-bottom="0"
     inkscape:window-width="1366"
     inkscape:window-height="709"
     inkscape:window-x="-4"
     inkscape:window-y="0"
     inkscape:window-maximized="1"
     inkscape:showpageshadow="false"
     borderlayer="true"
     showguides="true"
     inkscape:snap-bbox="true"
     inkscape:object-nodes="true"
     inkscape:snap-global="true">
    <inkscape:grid
       type="xygrid"
       id="grid4063"
       originx="7.9999866px"
       originy="7.9999772px" />
    <sodipodi:guide
       position="0,0"
       orientation="0,64"
       id="guide4196" />
    <sodipodi:guide
       position="64,0"
       orientation="-64,0"
       id="guide4198" />
    <sodipodi:guide
       position="64,64"
       orientation="0,-64"
       id="guide4200" />
    <sodipodi:guide
       position="6,58"
       orientation="52,0"
       id="guide4202" />
    <sodipodi:guide
       position="6,6"
       orientation="0,52"
       id="guide4204" />
    <sodipodi:guide
       position="58,6"
       orientation="-52,0"
       id="guide4206" />
    <sodipodi:guide
       position="58,58"
       orientation="0,-52"
       id="guide4208" />
  </sodipodi:namedview>
  <metadata
     id="metadata5458">
    <rdf:RDF>
      <cc:Work
         rdf:about="">
        <dc:format>image/svg+xml</dc:format>
        <dc:type
           rdf:resource="http://purl.org/dc/dcmitype/StillImage" />
        <dc:title />
      </cc:Work>
    </rdf:RDF>
  </metadata>
  <g
     inkscape:label="Capa 1"
     inkscape:groupmode="layer"
     id="layer1"
     transform="translate(-376.57144,-491.79797)">
    <path
       style="fill:url(#linearGradient3834);fill-opacity:1.0;stroke:none"
       d="M 32 6 C 17.59725 6 6.0019531 17.59602 6.0019531 32 C 6.0019531 46.40398 17.59725 58 32 58 C 46.40275 58 57.998047 46.40398 57.998047 32 C 57.998047 17.59602 46.40275 6 32 6 z M 32 29 C 33.662 29 35 30.338 35 32 C 35 33.662 33.662 35 32 35 C 30.338 35 29 33.662 29 32 C 29 30.338 30.338 29 32 29 z "
       transform="translate(376.57144,491.79797)"
       id="rect4146" />
    <path
       style="opacity:0.2;fill:url(#linearGradient4372);fill-opacity:1;fill-rule:evenodd;stroke:none"
       d="M 38.125 25.375 L 37.570312 26.257812 A 8 8 0 0 1 40 32 A 8 8 0 0 1 32 40 A 8 8 0 0 1 25.669922 36.876953 L 24.71875 37.375 L 42.683594 55.683594 C 48.453734 53.085924 53.084131 48.454284 55.681641 42.683594 L 38.125 25.375 z M 37.025391 27.126953 L 34.736328 30.777344 C 34.90297 31.151175 35 31.562905 35 32 C 35 33.662 33.662 35 32 35 C 31.358211 35 30.768025 34.795724 30.28125 34.455078 L 26.564453 36.40625 A 7 7 0 0 0 32 39 A 7 7 0 0 0 39 32 A 7 7 0 0 0 37.025391 27.126953 z "
       transform="translate(376.57144,491.79797)"
       id="path4364" />
    <path
       style="fill:url(#linearGradient3862);fill-opacity:1.0;stroke:none"
       d="M 32 23 C 27.014 23 23 27.014 23 32 C 23 36.986 27.014 41 32 41 C 36.986 41 41 36.986 41 32 C 41 27.014 36.986 23 32 23 z M 32 24 A 8 8 0 0 1 40 32 A 8 8 0 0 1 32 40 A 8 8 0 0 1 24 32 A 8 8 0 0 1 32 24 z M 32 25 A 7 7 0 0 0 25 32 A 7 7 0 0 0 32 39 A 7 7 0 0 0 39 32 A 7 7 0 0 0 32 25 z M 32 29 C 33.662 29 35 30.338 35 32 C 35 33.662 33.662 35 32 35 C 30.338 35 29 33.662 29 32 C 29 30.338 30.338 29 32 29 z "
       transform="translate(376.57144,491.79797)"
       id="rect4270" />
    <path
       style="fill:#2e3132;fill-opacity:0.29411765;stroke:none"
       d="m 6.0019531,31.191406 c -0.005,0.21774 0,0.435127 0,0.654297 C 6.0019531,46.334943 17.59723,58 32,58 46.40277,58 57.998047,46.334943 57.998047,31.845703 c 0,-0.21917 0.005,-0.436557 0,-0.654297 C 57.654007,45.374776 46.18454,57 32,57 17.81546,57 6.3459931,45.374776 6.0019531,31.191406 Z"
       transform="translate(376.57144,491.79797)"
       id="rect4284"
       inkscape:connector-curvature="0"
       sodipodi:nodetypes="cssscsc" />
    <path
       style="opacity:1;fill:#2e3132;fill-opacity:0.29411766;stroke-linecap:round"
       d="M 32 24 A 8 8 0 0 0 24 32 A 8 8 0 0 0 32 40 A 8 8 0 0 0 40 32 A 8 8 0 0 0 32 24 z M 32 25 A 7 7 0 0 1 39 32 A 7 7 0 0 1 32 39 A 7 7 0 0 1 25 32 A 7 7 0 0 1 32 25 z "
       transform="translate(376.57144,491.79797)"
       id="path4558" />
    <ellipse
       style="opacity:1;fill:url(#linearGradient4215-6);fill-opacity:1.0;stroke-linecap:round"
       id="path4207-6"
       cx="424.57144"
       cy="507.79797"
       rx="10.000015"
       ry="10" />
    <path
       style="opacity:0.2;fill:url(#linearGradient4372-2-0);fill-opacity:1;fill-rule:evenodd;stroke:none"
       d="m 430.57143,504.79799 0,6 -2,0 -1.4375,1.3125 7.43751,7.6875 0,3 -12.00001,-12 -3.5625,2.26563 15.56251,15.73437 0,-23 -4.00001,-4 z"
       id="path4364-0-5"
       inkscape:connector-curvature="0"
       sodipodi:nodetypes="cccccccccccc" />
    <g
       transform="translate(416.57144,-536.56423)"
       id="layer1-0"
       inkscape:label="Capa 1"
       style="fill-opacity:1.0;fill:url(#linearGradient4222)">
      <path
         id="path3763-3"
         transform="translate(0,1036.3622)"
         d="m 5,2 0,1 0,7.28125 C 4.7054558,10.110493 4.3649652,10 4,10 c -1.1045695,0 -2,0.895435 -2,2 0,1.104565 0.8954305,2 2,2 1.1045695,0 2,-0.895435 2,-2 l 0,-7 7,0 0,4.28125 C 12.705456,9.1104925 12.364965,9 12,9 c -1.104569,0 -2,0.8954353 -2,2 0,1.104565 0.895431,2 2,2 1.104569,0 2,-0.895435 2,-2 L 14,3 14,2 5,2 Z m 1,1 7,0 0,1 -7,0 0,-1 z"
         style="fill:url(#linearGradient4222);fill-opacity:1.0;stroke:none"
         inkscape:connector-curvature="0" />
    </g>
  </g>
</svg>

<svg xmlns="http://www.w3.org/2000/svg" viewBox="0 0 48 48"><defs><linearGradient y2="506.8" x2="0" y1="540.8" gradientTransform="matrix(1.52928 0 0 1.52941-592.82-769.1)" gradientUnits="userSpaceOnUse" id="0"><stop stop-color="#049b78"/><stop offset="1" stop-color="#40ca85"/></linearGradient><linearGradient id="1" x1="32.02" y1="41.546" x2="32" y2="24" gradientUnits="userSpaceOnUse"><stop stop-color="#b0ffd6"/><stop offset="1" stop-color="#f6fbfb"/></linearGradient></defs><path transform="matrix(.92308 0 0 .92308-5.534-5.541)" d="m32 6c-14.403 0-25.998 11.596-25.998 26 0 14.404 11.595 26 25.998 26 14.403 0 25.998-11.596 25.998-26 0-14.404-11.595-26-25.998-26m0 23c1.662 0 3 1.338 3 3 0 1.662-1.338 3-3 3-1.662 0-3-1.338-3-3 0-1.662 1.338-3 3-3z" fill="url(#0)"/><path transform="matrix(.92308 0 0 .92308-5.534-5.541)" d="m32 23c-4.986 0-9 4.01-9 9 0 4.986 4.01 9 9 9 4.986 0 9-4.01 9-9 0-4.986-4.01-9-9-9m0 1a8 8 0 0 1 8 8 8 8 0 0 1 -8 8 8 8 0 0 1 -8 -8 8 8 0 0 1 8 -8m0 1a7 7 0 0 0 -7 7 7 7 0 0 0 7 7 7 7 0 0 0 7 -7 7 7 0 0 0 -7 -7m0 4c1.662 0 3 1.338 3 3 0 1.662-1.338 3-3 3-1.662 0-3-1.338-3-3 0-1.662 1.338-3 3-3" fill="url(#1)"/><path d="m471.12 530.74c-.767.215-1.385 1.072-1.385 1.904v13.19c-.778-.427-1.778-.599-2.814-.317-1.87.509-3.041 2.153-2.641 3.671.401 1.519 2.243 2.367 4.112 1.858 1.492-.406 2.52-1.554 2.684-2.765l.043-12.465 9.697-2.72v9.836c-.778-.427-1.778-.599-2.814-.317-1.87.509-3.041 2.153-2.641 3.671.401 1.519 2.243 2.367 4.112 1.858 1.492-.406 2.52-1.554 2.684-2.765l.043-16.227c0-.624-.368-1.091-.866-1.179l-10.216 2.765" transform="matrix(.37915 0 0 .37915-141.02-180.53)" fill="#d5fde9"/></svg>
